brandFactory_export/3.Masa/TV_Contenidos audiovisuales_3Masa.svg

<?xml version="1.0" encoding="UTF-8"?>
<svg width="24px" height="24px" viewBox="0 0 24 24" version="1.1" xmlns="http://www.w3.org/2000/svg" xmlns:xlink="http://www.w3.org/1999/xlink">
    <title>3.Masa/TV_Contenidos audiovisuales_3Masa</title>
    <g id="Symbols" stroke="none" stroke-width="1" fill="none" fill-rule="evenodd">
        <g id="3.Masa/TV_Contenidos-audiovisuales_3Masa" fill="#5CB615" fill-rule="nonzero">
            <path d="M19.4957983,18.4487395 L4.12773109,18.4487395 C2.78319328,18.4487395 1.74117647,18.0722689 1.02857143,17.3327731 C0.346218487,16.6201681 0,15.605042 0,14.3142857 L0,7.11764706 C0,4.47563025 1.46554622,3.02352941 4.12773109,3.02352941 L19.4957983,3.03361345 C22.1579832,3.03361345 23.6235294,4.48907563 23.6235294,7.12773109 L23.6235294,14.3243697 C23.6235294,15.6151261 23.2773109,16.6302521 22.5915966,17.3361345 C21.8789916,18.0756303 20.8369748,18.4487395 19.4957983,18.4487395 L19.4957983,18.4487395 Z M14.7563025,21.087395 L8.85714286,21.087395 C8.48739496,21.087395 8.18487395,20.7848739 8.18487395,20.4151261 C8.18487395,20.0453782 8.48739496,19.7428571 8.85714286,19.7428571 L14.7563025,19.7428571 C15.1260504,19.7428571 15.4285714,20.0453782 15.4285714,20.4151261 C15.4285714,20.7848739 15.1260504,21.087395 14.7563025,21.087395 Z" id="TV_Contenidos-audiovisuales_3Masa"></path>
        </g>
    </g>
</svg>

<svg width="24" height="24" viewBox="0 0 24 24" xmlns="http://www.w3.org/2000/svg"><path d="M19.496 18.449H4.128c-1.345 0-2.387-.377-3.1-1.116C.347 16.62 0 15.605 0 14.314V7.118c0-2.642 1.466-4.094 4.128-4.094l15.368.01c2.662 0 4.128 1.455 4.128 4.094v7.196c0 1.291-.347 2.306-1.032 3.012-.713.74-1.755 1.113-3.096 1.113zm-4.74 2.638H8.857a.674.674 0 01-.672-.672c0-.37.302-.672.672-.672h5.9c.37 0 .672.302.672.672 0 .37-.303.672-.673.672z" fill="#5CB615" fill-rule="nonzero"/></svg>
